polaris-icons/icons/new-icons/StarFilledMinor.svg

<svg width="20" height="20" viewBox="0 0 20 20" fill="none" xmlns="http://www.w3.org/2000/svg">
<path d="M11.1281 4.12281C10.6753 3.17391 9.32464 3.17391 8.87185 4.12281L7.48231 7.03482L4.28343 7.45649C3.24105 7.5939 2.82365 8.87849 3.58619 9.60235L5.92629 11.8237L5.33882 14.9964C5.14738 16.0302 6.24012 16.8241 7.16419 16.3226L9.99999 14.7835L12.8358 16.3226C13.7599 16.8241 14.8526 16.0302 14.6612 14.9964L14.0737 11.8237L16.4138 9.60235C17.1763 8.87849 16.7589 7.5939 15.7166 7.45649L12.5177 7.03482L11.1281 4.12281Z" fill="#4A4A4A"/>
</svg>

<svg viewBox="0 0 20 20" xmlns="http://www.w3.org/2000/svg"><path d="M11.128 4.123c-.453-.95-1.803-.95-2.256 0l-1.39 2.912-3.199.421c-1.042.138-1.46 1.422-.697 2.146l2.34 2.222-.587 3.172c-.192 1.034.901 1.828 1.825 1.327l2.836-1.54 2.836 1.54c.924.501 2.017-.293 1.825-1.327l-.587-3.172 2.34-2.222c.762-.724.345-2.008-.697-2.146l-3.2-.421-1.389-2.912Z" fill="#5C5F62"/></svg>
